SF_Symbols/cloud.moon.rain.fill.svg

<?xml version="1.0" encoding="UTF-8"?>
<svg xmlns="http://www.w3.org/2000/svg" xmlns:xlink="http://www.w3.org/1999/xlink" width="24" height="24" viewBox="0 0 24 24" version="1.1">
<g id="surface1">
<path style=" stroke:none;fill-rule:nonzero;fill:rgb(100%,100%,100%);fill-opacity:1;" d="M 4.152344 16.007812 L 13.8125 16.007812 C 14.652344 16.007812 15.410156 15.816406 16.089844 15.429688 C 16.769531 15.042969 17.304688 14.519531 17.707031 13.855469 C 18.105469 13.191406 18.304688 12.445312 18.304688 11.625 C 18.304688 10.804688 18.097656 10.070312 17.6875 9.417969 C 17.28125 8.765625 16.730469 8.246094 16.027344 7.867188 C 15.324219 7.484375 14.527344 7.292969 13.632812 7.285156 C 13.289062 6.625 12.855469 6.058594 12.339844 5.589844 C 11.828125 5.113281 11.25 4.753906 10.605469 4.507812 C 9.96875 4.257812 9.292969 4.132812 8.570312 4.132812 C 7.84375 4.132812 7.15625 4.265625 6.507812 4.527344 C 5.859375 4.789062 5.28125 5.15625 4.769531 5.625 C 4.257812 6.09375 3.839844 6.644531 3.519531 7.277344 C 3.195312 7.90625 3.003906 8.589844 2.9375 9.320312 C 2.175781 9.546875 1.570312 9.960938 1.117188 10.5625 C 0.667969 11.15625 0.445312 11.847656 0.445312 12.632812 C 0.445312 13.300781 0.601562 13.890625 0.910156 14.402344 C 1.226562 14.90625 1.660156 15.304688 2.214844 15.589844 C 2.773438 15.867188 3.417969 16.007812 4.152344 16.007812 Z M 19.417969 11.472656 C 20.117188 11.355469 20.738281 11.136719 21.285156 10.820312 C 21.832031 10.507812 22.296875 10.144531 22.679688 9.730469 C 23.066406 9.316406 23.359375 8.890625 23.5625 8.457031 C 23.765625 8.019531 23.867188 7.621094 23.867188 7.257812 C 23.867188 7.085938 23.828125 6.945312 23.75 6.832031 C 23.671875 6.710938 23.5625 6.652344 23.417969 6.652344 C 23.277344 6.652344 23.105469 6.699219 22.902344 6.792969 C 22.699219 6.890625 22.453125 6.984375 22.160156 7.082031 C 21.867188 7.175781 21.519531 7.222656 21.105469 7.222656 C 20.382812 7.222656 19.75 7.085938 19.214844 6.8125 C 18.683594 6.539062 18.273438 6.15625 17.980469 5.660156 C 17.691406 5.160156 17.542969 4.578125 17.542969 3.910156 C 17.542969 3.519531 17.597656 3.160156 17.707031 2.839844 C 17.8125 2.519531 17.917969 2.238281 18.019531 2 C 18.125 1.757812 18.179688 1.554688 18.179688 1.394531 C 18.179688 1.257812 18.132812 1.144531 18.035156 1.0625 C 17.945312 0.980469 17.8125 0.941406 17.632812 0.945312 C 17.21875 0.964844 16.789062 1.085938 16.347656 1.3125 C 15.90625 1.53125 15.484375 1.835938 15.082031 2.222656 C 14.679688 2.609375 14.332031 3.0625 14.035156 3.582031 C 13.742188 4.09375 13.539062 4.644531 13.417969 5.230469 C 13.554688 5.363281 13.691406 5.519531 13.820312 5.695312 C 13.953125 5.867188 14.070312 6.074219 14.179688 6.3125 C 14.933594 6.371094 15.628906 6.546875 16.257812 6.839844 C 16.890625 7.132812 17.4375 7.511719 17.902344 7.980469 C 18.371094 8.453125 18.738281 8.984375 19 9.582031 C 19.269531 10.175781 19.40625 10.804688 19.417969 11.472656 Z M 3.964844 20.285156 L 5.132812 18.277344 C 5.210938 18.140625 5.230469 18.003906 5.1875 17.867188 C 5.152344 17.722656 5.070312 17.613281 4.9375 17.535156 C 4.800781 17.457031 4.664062 17.441406 4.527344 17.480469 C 4.390625 17.519531 4.28125 17.605469 4.195312 17.742188 L 3.027344 19.769531 C 2.957031 19.898438 2.9375 20.03125 2.972656 20.167969 C 3.007812 20.304688 3.09375 20.417969 3.230469 20.5 C 3.363281 20.570312 3.5 20.585938 3.644531 20.542969 C 3.785156 20.507812 3.894531 20.421875 3.964844 20.285156 Z M 6.757812 22.804688 L 7.917969 20.785156 C 8.003906 20.65625 8.023438 20.519531 7.980469 20.375 C 7.945312 20.230469 7.863281 20.121094 7.730469 20.042969 C 7.59375 19.96875 7.457031 19.945312 7.320312 19.980469 C 7.183594 20.023438 7.074219 20.113281 6.992188 20.25 L 5.820312 22.285156 C 5.742188 22.410156 5.722656 22.542969 5.757812 22.679688 C 5.792969 22.820312 5.882812 22.929688 6.027344 23.007812 C 6.15625 23.085938 6.292969 23.105469 6.4375 23.0625 C 6.582031 23.019531 6.6875 22.933594 6.757812 22.804688 Z M 11.070312 20.277344 L 12.230469 18.269531 C 12.316406 18.132812 12.335938 17.992188 12.292969 17.855469 C 12.257812 17.714844 12.175781 17.605469 12.042969 17.527344 C 11.90625 17.449219 11.769531 17.429688 11.632812 17.472656 C 11.496094 17.507812 11.386719 17.59375 11.304688 17.730469 L 10.132812 19.757812 C 10.054688 19.890625 10.035156 20.023438 10.070312 20.160156 C 10.105469 20.296875 10.195312 20.40625 10.332031 20.492188 C 10.46875 20.5625 10.605469 20.578125 10.742188 20.535156 C 10.882812 20.5 10.992188 20.414062 11.070312 20.277344 Z M 13.867188 22.792969 L 15.027344 20.777344 C 15.109375 20.644531 15.132812 20.507812 15.089844 20.367188 C 15.054688 20.222656 14.96875 20.113281 14.832031 20.035156 C 14.699219 19.957031 14.5625 19.9375 14.417969 19.972656 C 14.28125 20.015625 14.175781 20.105469 14.097656 20.242188 L 12.929688 22.277344 C 12.851562 22.402344 12.832031 22.53125 12.867188 22.667969 C 12.902344 22.8125 12.988281 22.921875 13.125 23 C 13.257812 23.078125 13.394531 23.09375 13.535156 23.054688 C 13.679688 23.011719 13.789062 22.925781 13.867188 22.792969 Z M 13.867188 22.792969 "/>
</g>
</svg>

<svg xmlns="http://www.w3.org/2000/svg" width="24" height="24"><path style="stroke:none;fill-rule:nonzero;fill:#fff;fill-opacity:1" d="M4.152 16.008h9.66c.84 0 1.598-.192 2.278-.578a4.402 4.402 0 0 0 1.617-1.575c.398-.664.598-1.41.598-2.23 0-.82-.207-1.555-.617-2.207a4.368 4.368 0 0 0-1.66-1.55c-.704-.384-1.5-.575-2.395-.583A6.089 6.089 0 0 0 12.34 5.59a5.339 5.339 0 0 0-1.735-1.082 5.497 5.497 0 0 0-2.035-.375 5.41 5.41 0 0 0-2.062.394 5.753 5.753 0 0 0-2.988 2.75 5.506 5.506 0 0 0-.582 2.043c-.762.227-1.368.64-1.82 1.242-.45.594-.673 1.286-.673 2.07 0 .669.157 1.259.465 1.77.317.504.75.903 1.305 1.188.558.277 1.203.418 1.937.418Zm15.266-4.535c.7-.118 1.32-.336 1.867-.653a5.72 5.72 0 0 0 1.395-1.09c.386-.414.68-.84.883-1.273.203-.437.304-.836.304-1.2a.738.738 0 0 0-.117-.425.37.37 0 0 0-.332-.18c-.14 0-.313.047-.516.141-.203.098-.449.191-.742.289-.293.094-.64.14-1.055.14-.722 0-1.355-.136-1.89-.41A2.976 2.976 0 0 1 17.98 5.66c-.289-.5-.437-1.082-.437-1.75 0-.39.055-.75.164-1.07.105-.32.211-.602.313-.84.105-.242.16-.445.16-.605a.4.4 0 0 0-.145-.333c-.09-.082-.223-.12-.402-.117-.414.02-.844.14-1.285.368a5.112 5.112 0 0 0-1.266.91c-.414.402-.766.859-1.047 1.359-.293.512-.5 1.07-.617 1.648.137.133.273.29.402.465.133.172.25.38.36.617.754.06 1.449.235 2.078.528.633.293 1.18.672 1.644 1.14.461.461.836 1.004 1.098 1.602.27.594.406 1.223.418 1.89ZM3.965 20.285l1.168-2.008a.49.49 0 0 0 .054-.41.513.513 0 0 0-.25-.332.523.523 0 0 0-.41-.055.584.584 0 0 0-.332.262L3.027 19.77a.53.53 0 0 0 .618.773.485.485 0 0 0 .32-.258Zm2.793 2.52 1.16-2.02a.477.477 0 0 0 .062-.41.513.513 0 0 0-.25-.332.54.54 0 0 0-.41-.063.562.562 0 0 0-.328.27L5.82 22.285a.487.487 0 0 0-.062.395c.035.14.125.25.27.328a.49.49 0 0 0 .41.055.528.528 0 0 0 .32-.258Zm4.312-2.528 1.16-2.007a.486.486 0 0 0 .063-.415.519.519 0 0 0-.25-.328.49.49 0 0 0-.41-.054.53.53 0 0 0-.328.257l-1.172 2.028a.52.52 0 0 0-.063.402c.04.14.133.262.262.332.137.07.273.086.41.043a.508.508 0 0 0 .328-.258Zm2.797 2.516 1.16-2.016a.477.477 0 0 0 .063-.41.506.506 0 0 0-.258-.332.533.533 0 0 0-.414-.062.561.561 0 0 0-.32.27l-1.168 2.034a.515.515 0 0 0 .195.723c.133.078.27.094.41.055a.544.544 0 0 0 .332-.262Zm0 0"/></svg>
